X:94
M:4/4
L:1/4
K:D
A | F3/2 E/ D A | B G G B | A3/2 F/ F E/D/ | F F E A | F3/2 E/ D A | B G d c/B/ | A F F/E/ D/E/ | F3/2 E/ !fermata!D A | A d c d | d c/B/ A B | A F F/E/ D/E/ | F F E A | A d c e | d c/B/ A !sintro!B | A F F/E/ D/E/ | F3/2 E/ !fermata!D !eintro!|]
